img/soundcloud.svg

<svg width="24" height="24" viewBox="0 0 24 24" fill="none" xmlns="http://www.w3.org/2000/svg">
<path d="M-6.53646e-06 15.922C-6.53646e-06 16.22 0.107993 16.445 0.323993 16.598C0.42188 16.6714 0.533912 16.7236 0.653017 16.7515C0.772123 16.7794 0.895715 16.7823 1.01599 16.76C1.24699 16.715 1.40899 16.633 1.50199 16.514C1.59499 16.395 1.64199 16.198 1.64199 15.922V12.684C1.64417 12.575 1.624 12.4666 1.58272 12.3657C1.54145 12.2647 1.47994 12.1733 1.40199 12.097C1.32575 12.019 1.23432 11.9575 1.13336 11.9162C1.0324 11.8749 0.924045 11.8548 0.814993 11.857C0.707844 11.8556 0.601551 11.8762 0.502662 11.9175C0.403773 11.9588 0.314381 12.0199 0.239993 12.097C0.161948 12.1732 0.100378 12.2646 0.0590959 12.3656C0.0178135 12.4666 -0.00230247 12.5749 -6.53646e-06 12.684V15.922ZM2.56899 17.307C2.56899 17.523 2.64499 17.685 2.79799 17.793C2.94999 17.901 3.14599 17.955 3.38399 17.955C3.62999 17.955 3.82899 17.901 3.98099 17.793C4.13399 17.685 4.21099 17.523 4.21099 17.307V9.757C4.21235 9.64985 4.19176 9.54356 4.15049 9.44467C4.10921 9.34578 4.04813 9.25639 3.97099 9.182C3.89475 9.104 3.80332 9.04246 3.70236 9.00119C3.6014 8.95991 3.49304 8.93976 3.38399 8.942C3.27684 8.94064 3.17055 8.96123 3.07166 9.00251C2.97277 9.04378 2.88338 9.10487 2.80899 9.182C2.73174 9.2565 2.67058 9.34606 2.6293 9.44513C2.58802 9.5442 2.5675 9.65068 2.56899 9.758V17.308V17.307ZM5.12599 17.665C5.12599 17.88 5.20399 18.042 5.36099 18.15C5.51699 18.258 5.71799 18.312 5.96399 18.312C6.20199 18.312 6.39699 18.258 6.54999 18.15C6.70299 18.042 6.77899 17.88 6.77899 17.665V10.774C6.77899 10.544 6.69899 10.346 6.53899 10.182C6.46546 10.1033 6.37637 10.0409 6.27737 9.99851C6.17838 9.95616 6.07166 9.93487 5.96399 9.936C5.85375 9.93439 5.74434 9.95538 5.64252 9.99769C5.5407 10.04 5.44863 10.1027 5.37199 10.182C5.29272 10.2586 5.23 10.3507 5.18769 10.4525C5.14538 10.5543 5.12438 10.6638 5.12599 10.774V17.664V17.665ZM7.69499 17.698C7.69499 18.108 7.96999 18.312 8.52099 18.312C9.07199 18.312 9.34799 18.108 9.34799 17.698V6.53C9.34799 5.905 9.15799 5.551 8.77799 5.47C8.53199 5.41 8.28999 5.48 8.05199 5.681C7.81399 5.882 7.69499 6.165 7.69499 6.53V17.698ZM10.308 18.022V5.872C10.308 5.484 10.424 5.253 10.654 5.179C12.2336 4.8006 13.8975 5.02338 15.322 5.804C16.2883 6.32479 17.1084 7.07988 17.707 8C18.3102 8.91701 18.673 9.97102 18.762 11.065C19.216 10.872 19.7 10.775 20.214 10.775C21.256 10.775 22.148 11.143 22.889 11.881C23.629 12.618 24 13.504 24 14.538C24 15.581 23.63 16.471 22.889 17.208C22.148 17.945 21.26 18.313 20.225 18.313L10.509 18.303C10.4449 18.2826 10.3911 18.2381 10.359 18.179C10.3295 18.132 10.3123 18.0784 10.309 18.023L10.308 18.022Z" fill="url(#paint0_linear_1_245)"/>
<defs>
<linearGradient id="paint0_linear_1_245" x1="30064.2" y1="507.299" x2="30064.2" y2="18096.6" gradientUnits="userSpaceOnUse">
<stop stop-color="#FF8800"/>
<stop offset="1" stop-color="#FF3300"/>
</linearGradient>
</defs>
</svg>

<svg xmlns="http://www.w3.org/2000/svg" width="24" height="24" fill="none" viewBox="0 0 24 24">
  <path fill="url(#a)" d="M0 15.922c0 .298.108.523.324.676a.885.885 0 0 0 .692.162c.231-.045.393-.127.486-.246.093-.119.14-.316.14-.592v-3.238a.799.799 0 0 0-.24-.587.798.798 0 0 0-.587-.24.785.785 0 0 0-.575.24.797.797 0 0 0-.24.587v3.238Zm2.569 1.385c0 .216.076.378.229.486.152.108.348.162.586.162.246 0 .445-.054.597-.162.153-.108.23-.27.23-.486v-7.55a.785.785 0 0 0-.24-.575.798.798 0 0 0-.587-.24.785.785 0 0 0-.575.24.785.785 0 0 0-.24.576v7.55Zm2.557.358c0 .215.078.377.235.485.156.108.357.162.603.162.238 0 .433-.054.586-.162.153-.108.229-.27.229-.485v-6.891c0-.23-.08-.428-.24-.592a.776.776 0 0 0-.575-.246.807.807 0 0 0-.592.246.807.807 0 0 0-.246.592v6.89Zm2.569.033c0 .41.275.614.826.614.551 0 .827-.204.827-.614V6.53c0-.625-.19-.979-.57-1.06-.246-.06-.488.01-.726.211-.238.201-.357.484-.357.849v11.168Zm2.613.324V5.872c0-.388.116-.619.346-.693a6.542 6.542 0 0 1 4.668.625A6.556 6.556 0 0 1 17.707 8a6.543 6.543 0 0 1 1.055 3.065c.454-.193.938-.29 1.452-.29 1.042 0 1.934.368 2.675 1.106.74.737 1.111 1.623 1.111 2.657 0 1.043-.37 1.933-1.111 2.67-.741.737-1.629 1.105-2.664 1.105l-9.716-.01a.261.261 0 0 1-.15-.124.33.33 0 0 1-.05-.156Z"/>
  <defs>
    <linearGradient id="a" x1="30064.2" x2="30064.2" y1="507.299" y2="18096.6" gradientUnits="userSpaceOnUse">
      <stop stop-color="#F80"/>
      <stop offset="1" stop-color="#F30"/>
    </linearGradient>
  </defs>
</svg>
